Origami/16x16/apps/fiji.svg

<svg width="16" height="16" version="1" xmlns="http://www.w3.org/2000/svg">
 <rect transform="matrix(0,-1,-1,0,0,0)" x="-15" y="-15" width="15" height="15" rx=".75" ry=".75" style="fill:#4f4f4f"/>
 <path d="m2 2v1.8 9.2h2v-9h9v-2h-9zm3 3v4.8h2v-4.8zm3 0v6h-3v2h5v-2-6zm3 0v8h2v-8z" style="fill:#3693ee"/>
</svg>

<svg xmlns="http://www.w3.org/2000/svg" width="16" height="16" version="1">
 <rect style="fill:#4f4f4f" width="15" height="15" x="-15" y="-15" rx=".75" ry=".75" transform="matrix(0,-1,-1,0,0,0)"/>
 <path style="fill:#3693ee" d="M 2,2 2,3.8 2,13 4,13 4,4 13,4 13,2 4,2 Z M 5,5 5,9.8 7,9.8 7,5 Z m 3,0 0,6 -3,0 0,2 5,0 0,-2 0,-6 z m 3,0 0,8 2,0 0,-8 z"/>
</svg>
